X: 614
T: Prince William
P: Longways for as many as will
%R: reel
B: "The Dancing-Master" printed by John Walsh, London
S: 6: CCDM1 http://imslp.org/wiki/The_Compleat_Country_Dancing-Master_(Various) V.1 p.?? #6
Z: 2012-2013 John Chambers <jc:trillian.mit.edu>
N: 2nd part has initial repeat but no final repeat.
M: C|
L: 1/8
K: A
% - - - - - - - - - - - - - - - - - - - - - - - - -
|:\
A4   c2BA | B4 E2d2 | c4   B4    | AGAB A2B2 |\
c2A2 E2c2 | B4 A2G2 | F2f2 B2^d2 | e4 :|
|:\
e4   f2e2 | d3c  B2e2 | d2c2 B2A2 | GAB2 E4 |\
A2GA B2AB | c2Bc d2e2 | c2BA E2G2 | A4 :|
% - - - - - - - - - - - - - - - - - - - - - - - - -
%%begintext align
%% The 1st Man Heys with the 2d and 3d Wo. his Partner at the same Time Heys with the 2d and 3d Men :|
%% Then Hey on your own Sides .|
%% The 1st Cu. cross over and turn .|
%% 2d Cu. does the same :#:
%% The 1st Man turns the 3d Wo. with his Right Hand, his Partner does the same with the 2d Man at the same Time and then turn your Partners .|
%% Do the same at the other Corner :|
%% First Cu. leads through the 2d and 3d Wo. and turn in the 2d Cu. Place .|
%% Then lead through the 2d and 3d Men and turn again.
%%endtext

%%sep 1 1 500
%%sep 1 1 500
